public/popup/An_Icon.dfqwtppe_9OhHI.svg

<svg width="154" height="154" viewBox="0 0 154 154" fill="none" xmlns="http://www.w3.org/2000/svg">
<path d="M106.504 148.123C67.2863 164.39 22.1432 145.72 5.8765 106.507C-10.3902 67.2887 8.27915 22.144 47.4964 5.87671C86.7137 -10.3905 131.857 8.27946 148.124 47.4981C164.39 86.7168 145.721 131.862 106.504 148.129V148.123Z" fill="#F7F4E5"/>
<path d="M76.9973 140.09C111.84 140.09 140.085 111.844 140.085 77C140.085 42.1563 111.84 13.91 76.9973 13.91C42.155 13.91 13.9096 42.1563 13.9096 77C13.9096 111.844 42.155 140.09 76.9973 140.09Z" fill="#F28AB8"/>
<path d="M42.6353 83.7005L44.8708 78.8616C46.4762 79.826 48.4441 80.0881 50.083 79.4024C51.2258 78.9285 51.8223 78.0923 51.4767 77.2616C51.0864 76.3139 49.9882 76.3474 49.0071 76.4923C44.4136 77.2895 40.8794 77.0275 39.324 73.2701C37.752 69.4848 39.9763 65.7274 43.8172 64.133C46.6546 62.9567 49.3862 63.0961 51.9226 64.4229L49.6259 69.4179C48.0093 68.5872 46.8665 68.3476 45.7237 68.8214C44.5809 69.2953 44.0625 70.1594 44.3969 70.9677C44.7537 71.8318 45.746 71.7761 46.716 71.6032C51.131 70.8451 54.8995 70.8172 56.6164 74.9592C58.1272 78.6052 56.1928 82.3403 51.655 84.2245C48.4831 85.5402 45.2889 85.4622 42.6298 83.695L42.6353 83.7005Z" fill="#A71F5F"/>
<path d="M51.7888 59.885L56.7391 57.8279L58.8741 62.9735C59.1027 63.5309 59.4037 64.2557 59.6267 64.7797L59.6546 64.7686C59.9779 62.6446 61.5778 61.4627 62.9101 60.9052C66.3051 59.4948 69.0589 61.1896 70.3745 64.3616L74.4607 74.2123L69.5105 76.2638L66.0263 67.8626C65.4131 66.3908 64.1979 65.655 62.8321 66.218C61.4942 66.7699 61.0427 68.1971 61.6782 69.7301L65.14 78.0756L60.1897 80.1327L51.7888 59.8795V59.885Z" fill="#A71F5F"/>
<path d="M72.3868 66.2405C70.4134 61.4852 72.2307 56.8191 76.9301 54.8679C81.6295 52.9167 85.6822 54.8233 87.7114 59.7236C87.9399 60.2811 88.1016 60.7382 88.2633 61.2901L77.7217 65.6663C78.7865 67.0544 80.3697 67.5673 82.0922 66.8537C83.4245 66.3018 84.2384 65.343 84.2496 63.8712L88.9545 63.9716C88.7037 67.3722 86.7414 69.7136 83.5695 71.0293C78.8979 72.9693 74.3491 70.9735 72.3868 66.2461V66.2405ZM82.6943 59.9744C81.7187 58.7145 80.3195 58.2518 78.675 58.9375C77.0639 59.6065 76.3838 60.9612 76.4897 62.55L82.6943 59.9744Z" fill="#A71F5F"/>
<path d="M87.0982 57.2368L84.3945 47.8934L89.4841 45.7806L89.5176 45.8642L91.0785 55.6814L87.1261 57.3204L87.0926 57.2368H87.0982Z" fill="#A71F5F"/>
<path d="M95.042 62.8732L96.9652 58.7813C98.1303 59.4726 99.4627 59.768 100.6 59.2942C101.492 58.9262 101.793 58.313 101.548 57.7277C101.258 57.0308 100.583 57.0531 99.6578 57.1758C96.1012 57.8057 93.5424 57.1367 92.355 54.2713C91.084 51.2107 92.8623 48.2561 96.0008 46.9516C98.0021 46.1209 100.026 46.1934 101.982 47.3084L100.037 51.5062C99.1059 50.9152 98.2585 50.6811 97.4502 51.0156C96.6698 51.339 96.3186 51.9745 96.5471 52.5319C96.8482 53.2567 97.7011 53.1954 98.7101 53.0337C102.3 52.3313 104.68 53.2009 105.812 55.927C107.05 58.9039 105.444 61.9478 102.105 63.3359C99.7135 64.3282 97.138 64.2557 95.0364 62.8788L95.042 62.8732Z" fill="#A71F5F"/>
<path d="M38.3929 111.223C36.4753 106.607 38.248 101.991 41.9495 100.458C43.7557 99.7057 45.3612 99.7279 46.8719 100.536L46.9277 100.514C46.727 100.107 46.4594 99.4659 46.2754 99.0255L51.2535 96.9573L57.5194 112.065L52.5413 114.133C52.2848 113.52 52.1622 113.213 51.9448 112.622L51.889 112.645C51.3873 114.351 50.0996 115.638 48.5666 116.274C44.6142 117.913 40.305 115.85 38.3929 111.234V111.223ZM49.5031 106.579C48.6948 104.634 46.8217 103.647 45.0156 104.4C43.2094 105.152 42.5349 107.226 43.3432 109.172C44.1515 111.117 46.0301 112.037 47.8698 111.273C49.6759 110.521 50.3505 108.614 49.5087 106.585L49.5031 106.579Z" fill="#A71F5F"/>
<path d="M52.636 96.383L57.5862 94.326C57.8148 94.8834 58.0489 95.4409 58.2663 95.9649L58.3221 95.9426C58.6788 94.3594 59.9498 92.9545 61.6222 92.2577C65.0172 90.8473 67.771 92.542 69.0866 95.7141L73.1728 105.565L68.2225 107.616L64.7384 99.215C64.1252 97.7433 62.9657 96.9851 61.5163 97.5816C60.0669 98.1781 59.7938 99.6332 60.3902 101.083L63.8521 109.428L58.9018 111.485L52.636 96.3775V96.383Z" fill="#A71F5F"/>
<path d="M70.5587 84.7377C69.9232 83.2046 70.6311 81.6102 72.2979 80.9189C73.9647 80.2277 75.5981 80.8576 76.2336 82.3851C76.8691 83.9126 76.1779 85.4735 74.4832 86.176C72.8108 86.8672 71.1942 86.2708 70.5587 84.7377ZM72.4094 88.1773L77.3597 86.1202L83.6255 101.228L78.6753 103.285L72.4094 88.1773Z" fill="#A71F5F"/>
<path d="M81.5796 93.2392C79.5839 88.4282 81.4458 83.8066 86.1507 81.8555C89.6293 80.4116 93.0855 81.3593 95.4938 84.3363L91.5915 87.5864C90.6048 86.4603 89.3338 85.9139 87.968 86.4826C86.134 87.2463 85.6713 89.1975 86.5019 91.1988C87.3325 93.2002 89.0161 94.1981 90.8557 93.4399C92.2438 92.8657 92.7678 91.6002 92.6173 90.0672L97.7013 89.5877C98.1194 93.4232 96.3188 96.5507 92.7065 98.0503C88.1409 99.9457 83.553 98.0001 81.5796 93.2392Z" fill="#A71F5F"/>
<path d="M97.1101 86.7671C95.159 82.0676 97.0767 77.3234 101.776 75.3778C106.448 73.4378 111.186 75.4224 113.12 80.0941C115.071 84.7937 113.143 89.5712 108.466 91.5113C103.766 93.4625 99.0557 91.4667 97.1045 86.7671H97.1101ZM108.176 82.1456C107.379 80.2279 105.556 79.1241 103.66 79.9101C101.77 80.6962 101.23 82.7756 102.038 84.7268C102.835 86.6445 104.697 87.765 106.593 86.979C108.482 86.1929 108.984 84.0968 108.176 82.1512V82.1456Z" fill="#A71F5F"/>
<path d="M111.058 72.1442L116.008 70.0871L116.688 71.7261L116.744 71.7038C117.101 70.1206 118.372 68.7158 120.044 68.0189C123.439 66.6085 126.193 68.3032 127.508 71.4753L131.595 81.3259L126.644 83.3775L123.16 74.9762C122.547 73.5045 121.387 72.7463 119.938 73.3428C118.494 73.9449 118.216 75.3943 118.812 76.8438L122.274 85.1893L117.324 87.2464L111.058 72.1386V72.1442Z" fill="#A71F5F"/>
</svg>

<svg xmlns="http://www.w3.org/2000/svg" width="154" height="154" fill="none" viewBox="0 0 154 154"><path fill="#f7f4e5" d="M106.504 148.123c-39.218 16.267-84.36-2.403-100.627-41.616-16.267-39.218 2.402-84.363 41.62-100.63s84.36 2.402 100.627 41.621-2.403 84.364-41.62 100.631z"/><path fill="#f28ab8" d="M76.997 140.09c34.843 0 63.088-28.246 63.088-63.09S111.84 13.91 76.997 13.91C42.155 13.91 13.91 42.156 13.91 77s28.245 63.09 63.087 63.09"/><path fill="#a71f5f" d="m42.635 83.7 2.236-4.838c1.605.964 3.573 1.226 5.212.54 1.143-.474 1.74-1.31 1.394-2.14-.39-.948-1.489-.915-2.47-.77-4.593.797-8.128.535-9.683-3.222-1.572-3.785.652-7.543 4.493-9.137 2.838-1.176 5.57-1.037 8.106.29l-2.297 4.995c-1.617-.83-2.76-1.07-3.902-.597s-1.661 1.338-1.327 2.147c.357.864 1.349.808 2.319.635 4.415-.758 8.184-.786 9.9 3.356 1.511 3.646-.423 7.381-4.961 9.266-3.172 1.315-6.366 1.237-9.025-.53zM51.789 59.885l4.95-2.057 2.135 5.145c.229.558.53 1.283.753 1.807l.028-.011c.323-2.124 1.923-3.306 3.255-3.864 3.395-1.41 6.149.285 7.465 3.457l4.086 9.85-4.95 2.052-3.485-8.401c-.613-1.472-1.828-2.208-3.194-1.645-1.338.552-1.79 1.98-1.154 3.512l3.462 8.346-4.95 2.057-8.401-20.253zM72.387 66.24c-1.974-4.755-.156-9.42 4.543-11.372 4.7-1.951 8.752-.045 10.781 4.856.229.557.39 1.014.552 1.566l-10.541 4.376c1.065 1.388 2.648 1.901 4.37 1.188 1.332-.552 2.146-1.511 2.158-2.983l4.704.1c-.25 3.401-2.213 5.743-5.384 7.058-4.672 1.94-9.22-.055-11.183-4.783zm10.307-6.266c-.975-1.26-2.374-1.722-4.019-1.036-1.611.668-2.291 2.023-2.185 3.612zM87.098 57.237l-2.704-9.344 5.09-2.112.034.083 1.56 9.817-3.952 1.64-.033-.084zM95.042 62.873l1.923-4.092c1.165.692 2.498.987 3.635.513.892-.368 1.193-.981.948-1.566-.29-.697-.965-.675-1.89-.552-3.557.63-6.116-.04-7.303-2.905-1.271-3.06.507-6.015 3.646-7.32 2.001-.83 4.025-.758 5.981.357l-1.945 4.198c-.931-.59-1.779-.825-2.587-.49-.78.323-1.131.959-.903 1.516.301.725 1.154.663 2.163.502 3.59-.703 5.97.167 7.102 2.893 1.238 2.977-.368 6.02-3.707 7.409-2.392.992-4.967.92-7.069-.457zM38.393 111.223c-1.918-4.616-.145-9.232 3.557-10.765 1.806-.752 3.411-.73 4.922.078l.056-.022c-.201-.407-.469-1.048-.653-1.489l4.979-2.068 6.265 15.108-4.978 2.068a31 31 0 0 1-.596-1.511l-.056.023c-.502 1.706-1.79 2.993-3.322 3.629-3.953 1.639-8.262-.424-10.174-5.04zm11.11-4.644c-.808-1.945-2.681-2.932-4.487-2.179-1.807.752-2.481 2.826-1.673 4.772.808 1.945 2.687 2.865 4.527 2.101 1.806-.752 2.48-2.659 1.639-4.688zM52.636 96.383l4.95-2.057c.229.557.463 1.115.68 1.639l.056-.022c.357-1.584 1.628-2.989 3.3-3.685 3.395-1.41 6.149.284 7.465 3.456l4.086 9.851-4.95 2.051-3.485-8.401c-.613-1.472-1.772-2.23-3.222-1.633-1.45.596-1.722 2.051-1.126 3.501l3.462 8.345-4.95 2.057-6.266-15.108zM70.559 84.738c-.636-1.533.072-3.128 1.739-3.82 1.667-.69 3.3-.06 3.936 1.467.635 1.528-.056 3.088-1.75 3.791-1.673.691-3.29.095-3.925-1.438m1.85 3.44 4.95-2.058 6.267 15.108-4.95 2.057zM81.58 93.24c-1.996-4.812-.134-9.433 4.57-11.384 3.48-1.444 6.935-.497 9.344 2.48l-3.903 3.25c-.986-1.126-2.257-1.672-3.623-1.103-1.834.763-2.297 2.715-1.466 4.716.83 2.001 2.514 3 4.354 2.24 1.388-.573 1.912-1.839 1.761-3.372l5.084-.48c.418 3.836-1.382 6.964-4.994 8.463-4.566 1.896-9.154-.05-11.127-4.81M97.11 86.767c-1.951-4.7-.033-9.444 4.666-11.39 4.672-1.94 9.41.045 11.344 4.717 1.951 4.7.023 9.477-4.654 11.417-4.7 1.952-9.41-.044-11.361-4.744zm11.066-4.621c-.797-1.918-2.62-3.022-4.516-2.236-1.89.786-2.43 2.866-1.622 4.817.797 1.917 2.659 3.038 4.555 2.252 1.889-.786 2.391-2.882 1.583-4.828zM111.058 72.144l4.95-2.057.68 1.64.056-.023c.357-1.583 1.628-2.988 3.3-3.685 3.395-1.41 6.149.284 7.464 3.456l4.087 9.85-4.951 2.052-3.484-8.4c-.613-1.473-1.773-2.23-3.222-1.634-1.444.602-1.722 2.051-1.126 3.5l3.462 8.346-4.95 2.057-6.266-15.107z"/></svg>
